src/images_karasa_jaga_svg/cmd/sc_symbolshapes.smiley.svg

<svg height="16" viewBox="0 0 16 16" width="16" xmlns="http://www.w3.org/2000/svg" xmlns:xlink="http://www.w3.org/1999/xlink"><linearGradient id="a" gradientUnits="userSpaceOnUse" x1="64" x2="64" y1="128" y2="0"><stop offset="0" stop-color="#7c9fcf"/><stop offset=".5" stop-color="#7c9ece"/><stop offset="1" stop-color="#7b9dcf"/></linearGradient><linearGradient id="b" gradientUnits="userSpaceOnUse" x1="72" x2="72" y1="128" y2="0"><stop offset="0" stop-color="#fff"/><stop offset=".59375" stop-color="#fff"/><stop offset=".84375" stop-color="#f1f1f1"/><stop offset=".90625" stop-color="#eaeaea"/><stop offset="1" stop-color="#dfdfdf"/></linearGradient><g transform="scale(.125)"><path d="m64 0a64 64 0 0 0 -64 64 64 64 0 0 0 64 64 64 64 0 0 0 64-64 64 64 0 0 0 -64-64zm-20 40a6 8 0 0 1 6 8 6 8 0 0 1 -6 8 6 8 0 0 1 -6-8 6 8 0 0 1 6-8zm40 0a6 8 0 0 1 6 8 6 8 0 0 1 -6 8 6 8 0 0 1 -6-8 6 8 0 0 1 6-8zm2.65625 51.402344c-9.165906 4.837281-16.437597 7.009255-23.177734 6.826172-6.099731-.165688-12.622396-2.376933-20.357422-6.246094 14.924743 2.900032 29.464333 2.429138 43.535156-.580078z" fill="url(#a)"/><path d="m64 8a56 56 0 0 0 -56 56 56 56 0 0 0 56 56 56 56 0 0 0 56-56 56 56 0 0 0 -56-56zm-20 24a12 16 0 0 1 12 16 12 16 0 0 1 -12 16 12 16 0 0 1 -12-16 12 16 0 0 1 12-16zm40 0a12 16 0 0 1 12 16 12 16 0 0 1 -12 16 12 16 0 0 1 -12-16 12 16 0 0 1 12-16zm-60 48c28.214013 11.596077 54.627928 9.70191 80 0v8c-34.116732 22.91006-47.708336 20.36782-80 0z" fill="url(#b)"/></g></svg>

<?xml version="1.0" encoding="UTF-8" standalone="no"?>
<!-- Created with Inkscape (http://www.inkscape.org/) -->

<svg
   xmlns:dc="http://purl.org/dc/elements/1.1/"
   xmlns:cc="http://creativecommons.org/ns#"
   xmlns:rdf="http://www.w3.org/1999/02/22-rdf-syntax-ns#"
   xmlns:svg="http://www.w3.org/2000/svg"
   xmlns="http://www.w3.org/2000/svg"
   xmlns:xlink="http://www.w3.org/1999/xlink"
   xmlns:sodipodi="http://sodipodi.sourceforge.net/DTD/sodipodi-0.dtd"
   xmlns:inkscape="http://www.inkscape.org/namespaces/inkscape"
   version="1.1"
   id="svg2"
   width="128"
   height="128"
   viewBox="0 0 128 128"
   sodipodi:docname="sc_symbolshapes.smiley.svg"
   inkscape:export-filename="/home/rizmut/Dokumen/Rizmut/Github/libreoffice-style-karasa-jaga/build/images_karasa_jaga/cmd/sc_symbolshapes.smiley.png"
   inkscape:export-xdpi="12"
   inkscape:export-ydpi="12"
   inkscape:version="0.92.3 (unknown)">
  <metadata
     id="metadata8">
    <rdf:RDF>
      <cc:Work
         rdf:about="">
        <dc:format>image/svg+xml</dc:format>
        <dc:type
           rdf:resource="http://purl.org/dc/dcmitype/StillImage" />
        <dc:title></dc:title>
      </cc:Work>
    </rdf:RDF>
  </metadata>
  <defs
     id="defs6">
    <linearGradient
       id="linearGradient3369">
      <stop
         id="stop3372"
         offset="0"
         style="stop-color:#ffffff;stop-opacity:1;" />
      <stop
         style="stop-color:#ffffff;stop-opacity:1;"
         offset="0.59375"
         id="stop3374" />
      <stop
         style="stop-color:#f1f1f1;stop-opacity:1;"
         offset="0.84375"
         id="stop3376" />
      <stop
         id="stop3378"
         offset="0.90625"
         style="stop-color:#eaeaea;stop-opacity:1;" />
      <stop
         id="stop3384"
         offset="1"
         style="stop-color:#dfdfdf;stop-opacity:1;" />
    </linearGradient>
    <linearGradient
       id="linearGradient7422">
      <stop
         style="stop-color:#7c9fcf;stop-opacity:1"
         offset="0"
         id="stop7424" />
      <stop
         id="stop5348"
         offset="0.5"
         style="stop-color:#7c9ece;stop-opacity:1" />
      <stop
         id="stop7426"
         offset="1"
         style="stop-color:#7b9dcf;stop-opacity:1" />
    </linearGradient>
    <linearGradient
       inkscape:collect="always"
       xlink:href="#linearGradient7422"
       id="linearGradient1057"
       x1="64"
       y1="128"
       x2="64"
       y2="0"
       gradientUnits="userSpaceOnUse" />
    <linearGradient
       inkscape:collect="always"
       xlink:href="#linearGradient3369"
       id="linearGradient1065"
       x1="72"
       y1="128"
       x2="72"
       y2="0"
       gradientUnits="userSpaceOnUse" />
  </defs>
  <sodipodi:namedview
     pagecolor="#ffffff"
     bordercolor="#666666"
     borderopacity="1"
     objecttolerance="10"
     gridtolerance="10"
     guidetolerance="10"
     inkscape:pageopacity="0"
     inkscape:pageshadow="2"
     inkscape:window-width="1366"
     inkscape:window-height="706"
     id="namedview4"
     showgrid="true"
     inkscape:snap-page="true"
     inkscape:snap-global="true"
     inkscape:zoom="1.4142136"
     inkscape:cx="82.073214"
     inkscape:cy="17.89272"
     inkscape:window-x="0"
     inkscape:window-y="0"
     inkscape:window-maximized="1"
     inkscape:current-layer="svg2"
     inkscape:snap-smooth-nodes="true"
     showguides="false"
     inkscape:guide-bbox="true">
    <inkscape:grid
       type="xygrid"
       id="grid27"
       spacingx="8"
       spacingy="8"
       empspacing="2" />
    <sodipodi:guide
       position="51.972346,56"
       orientation="0,1"
       id="guide841"
       inkscape:locked="false" />
  </sodipodi:namedview>
  <g
     id="g1107">
    <path
       id="circle1049"
       d="M 64 0 A 64 64 0 0 0 0 64 A 64 64 0 0 0 64 128 A 64 64 0 0 0 128 64 A 64 64 0 0 0 64 0 z M 44 40 A 6 8 0 0 1 50 48 A 6 8 0 0 1 44 56 A 6 8 0 0 1 38 48 A 6 8 0 0 1 44 40 z M 84 40 A 6 8 0 0 1 90 48 A 6 8 0 0 1 84 56 A 6 8 0 0 1 78 48 A 6 8 0 0 1 84 40 z M 86.65625 91.402344 C 77.490344 96.239625 70.218653 98.411599 63.478516 98.228516 C 57.378785 98.062828 50.85612 95.851583 43.121094 91.982422 C 58.045837 94.882454 72.585427 94.41156 86.65625 91.402344 z "
       style="opacity:1;fill:url(#linearGradient1057);fill-opacity:1;stroke:none;stroke-width:9.14285755;stroke-linecap:round;stroke-linejoin:round;stroke-miterlimit:4;stroke-dasharray:none;stroke-dashoffset:0;stroke-opacity:1" />
    <path
       id="path1047"
       d="M 64 8 A 56 56 0 0 0 8 64 A 56 56 0 0 0 64 120 A 56 56 0 0 0 120 64 A 56 56 0 0 0 64 8 z M 44 32 A 12 16 0 0 1 56 48 A 12 16 0 0 1 44 64 A 12 16 0 0 1 32 48 A 12 16 0 0 1 44 32 z M 84 32 A 12 16 0 0 1 96 48 A 12 16 0 0 1 84 64 A 12 16 0 0 1 72 48 A 12 16 0 0 1 84 32 z M 24 80 C 52.214013 91.596077 78.627928 89.70191 104 80 L 104 88 C 69.883268 110.91006 56.291664 108.36782 24 88 L 24 80 z "
       style="opacity:1;fill:url(#linearGradient1065);fill-opacity:1;stroke:none;stroke-width:8;stroke-linecap:round;stroke-linejoin:round;stroke-miterlimit:4;stroke-dasharray:none;stroke-dashoffset:0;stroke-opacity:1" />
  </g>
</svg>
